packages/assets/static/images/icons/detective.svg

<svg width="24" height="24" viewBox="0 0 24 24" xmlns="http://www.w3.org/2000/svg">
<g clip-path="url(#clip0_2077_3151)">
<path d="M23.25 10.4991H20.6325L16.1794 4.3669C16.0444 4.18162 15.8688 4.02973 15.666 3.9229C15.4632 3.81606 15.2387 3.75712 15.0095 3.75061C14.7804 3.74409 14.5529 3.79017 14.3443 3.8853C14.1358 3.98043 13.9518 4.12209 13.8066 4.2994L12.6019 5.69627L12.5831 5.71783C12.5133 5.80553 12.4246 5.87634 12.3237 5.92502C12.2227 5.9737 12.1121 5.99897 12 5.99897C11.8879 5.99897 11.7773 5.9737 11.6763 5.92502C11.5754 5.87634 11.4867 5.80553 11.4169 5.71783L11.3981 5.69627L10.1934 4.2994C10.0482 4.12209 9.86422 3.98043 9.65568 3.8853C9.44714 3.79017 9.21958 3.74409 8.99046 3.75061C8.76134 3.75712 8.53676 3.81606 8.33397 3.9229C8.13118 4.02973 7.95557 4.18162 7.82062 4.3669L3.3675 10.4991H0.75C0.551088 10.4991 0.360322 10.5781 0.21967 10.7188C0.0790176 10.8594 0 11.0502 0 11.2491C0 11.448 0.0790176 11.6388 0.21967 11.7794C0.360322 11.9201 0.551088 11.9991 0.75 11.9991H23.25C23.4489 11.9991 23.6397 11.9201 23.7803 11.7794C23.921 11.6388 24 11.448 24 11.2491C24 11.0502 23.921 10.8594 23.7803 10.7188C23.6397 10.5781 23.4489 10.4991 23.25 10.4991ZM9.03187 5.24908L9.04969 5.27065L10.2544 6.66658C10.4654 6.92601 10.7315 7.13515 11.0335 7.2788C11.3354 7.42244 11.6656 7.49697 12 7.49697C12.3344 7.49697 12.6646 7.42244 12.9665 7.2788C13.2685 7.13515 13.5346 6.92601 13.7456 6.66658L14.9503 5.27065C14.9559 5.26315 14.9597 5.25658 14.9662 5.24908L18.7781 10.4991H5.22094L9.03187 5.24908ZM16.875 13.4991C16.0449 13.4992 15.2441 13.8053 14.6254 14.3587C14.0068 14.9122 13.6138 15.6742 13.5216 16.4991H10.4784C10.386 15.6749 9.99334 14.9136 9.37539 14.3605C8.75745 13.8074 7.95748 13.5012 7.12815 13.5003C6.29882 13.4994 5.49819 13.8039 4.87904 14.3556C4.25989 14.9074 3.86557 15.6678 3.77133 16.4918C3.67709 17.3157 3.88953 18.1455 4.3681 18.8229C4.84667 19.5002 5.55788 19.9776 6.36599 20.164C7.17411 20.3503 8.02256 20.2326 8.74944 19.8333C9.47632 19.434 10.0307 18.7811 10.3069 17.9991H13.6931C13.8994 18.5824 14.262 19.0979 14.7414 19.4891C15.2208 19.8802 15.7986 20.1321 16.4115 20.2171C17.0243 20.3021 17.6488 20.217 18.2166 19.971C18.7843 19.7251 19.2736 19.3278 19.6308 18.8226C19.988 18.3174 20.1995 17.7237 20.2421 17.1064C20.2847 16.4891 20.1568 15.872 19.8723 15.3225C19.5879 14.773 19.1578 14.3123 18.6292 13.9907C18.1006 13.6691 17.4937 13.4991 16.875 13.4991ZM7.125 18.7491C6.75416 18.7491 6.39165 18.6391 6.08331 18.4331C5.77496 18.2271 5.53464 17.9342 5.39273 17.5916C5.25081 17.249 5.21368 16.872 5.28603 16.5083C5.35837 16.1446 5.53695 15.8105 5.79917 15.5483C6.0614 15.286 6.39549 15.1075 6.75921 15.0351C7.12292 14.9628 7.49992 14.9999 7.84253 15.1418C8.18514 15.2837 8.47798 15.524 8.68401 15.8324C8.89003 16.1407 9 16.5032 9 16.8741C9 17.1203 8.9515 17.3641 8.85727 17.5916C8.76305 17.8191 8.62494 18.0258 8.45082 18.1999C8.27672 18.374 8.07002 18.5121 7.84253 18.6064C7.61505 18.7006 7.37123 18.7491 7.125 18.7491ZM16.875 18.7491C16.5042 18.7491 16.1416 18.6391 15.8333 18.4331C15.525 18.2271 15.2846 17.9342 15.1427 17.5916C15.0008 17.249 14.9637 16.872 15.036 16.5083C15.1084 16.1446 15.287 15.8105 15.5492 15.5483C15.8114 15.286 16.1455 15.1075 16.5092 15.0351C16.8729 14.9628 17.2499 14.9999 17.5925 15.1418C17.9351 15.2837 18.228 15.524 18.434 15.8324C18.64 16.1407 18.75 16.5032 18.75 16.8741C18.75 17.3714 18.5525 17.8483 18.2008 18.1999C17.8492 18.5515 17.3723 18.7491 16.875 18.7491Z"/>
</g>
<defs>
<clipPath id="clip0_2077_3151">
<rect width="24" height="24"/>
</clipPath>
</defs>
</svg>

<svg viewBox="0 0 24 24" xmlns="http://www.w3.org/2000/svg" aria-hidden="true" fill="currentColor"><g clip-path="url(#a)"><path d="M23.25 10.5h-2.617l-4.454-6.133a1.5 1.5 0 0 0-2.372-.068l-1.205 1.397-.019.022a.746.746 0 0 1-1.166 0l-.019-.022L10.193 4.3a1.5 1.5 0 0 0-2.372.068L3.368 10.5H.75a.75.75 0 1 0 0 1.5h22.5a.75.75 0 1 0 0-1.5M9.032 5.25l.018.02 1.204 1.397a2.25 2.25 0 0 0 3.492 0L14.95 5.27l.016-.022 3.812 5.25H5.221zm7.843 8.25a3.375 3.375 0 0 0-3.353 3h-3.044a3.375 3.375 0 1 0-.171 1.5h3.386a3.376 3.376 0 1 0 3.182-4.5m-9.75 5.25a1.875 1.875 0 1 1 0-3.751 1.875 1.875 0 0 1 0 3.75m9.75 0a1.875 1.875 0 1 1 0-3.751 1.875 1.875 0 0 1 0 3.75"/></g><defs><clipPath id="a"><path d="M0 0h24v24H0z"/></clipPath></defs></svg>
